modules/framework7-icons/icons/tune_fill.svg

<?xml version="1.0" encoding="UTF-8"?>
<svg width="38px" height="49px" viewBox="0 0 38 49" version="1.1" xmlns="http://www.w3.org/2000/svg" xmlns:xlink="http://www.w3.org/1999/xlink">
    <!-- Generator: Sketch 40.1 (33804) - http://www.bohemiancoding.com/sketch -->
    <title>tune_fill</title>
    <desc>Created with Sketch.</desc>
    <defs></defs>
    <g id="Page-1" stroke="none" stroke-width="1" fill="none" fill-rule="evenodd">
        <g id="tune_fill" fill="#000000">
            <path d="M13.9225784,16.4895492 C13.9287321,18.4775526 13.9336885,20.4184428 13.9371808,22.2794679 C13.9533668,30.9048706 13.9366634,36.6417838 13.8754739,38.2205222 C13.6921379,42.9507378 13.3099374,44.4941023 11.4621867,46.2362267 C9.66405613,47.9315676 7.05604291,48.4005236 4.75072655,47.9156721 C2.61841151,47.467206 0.981198343,46.3088158 0.483973945,44.436704 C-0.387841742,41.1542093 1.45234554,38.2251001 4.65937019,37.226969 C5.33638429,37.01626 5.99555393,36.8721267 6.84538252,36.7320363 C7.04212996,36.6996034 7.21927926,36.6718765 7.53556186,36.6234178 C9.83478217,36.2711461 10.859165,36.0106345 12.4296552,35.2268036 L13.3227931,37.016302 C12.8253193,37.264591 12.3741328,37.4674758 11.929183,37.6391302 C11.9247348,37.5497493 11.9219742,37.5 11.9219742,37.5 C11.9219742,37.5 11.9126885,37.5010544 11.8947122,37.5031498 C11.9397595,35.3377349 11.9515461,29.9365272 11.9371843,22.283221 C11.9318615,19.4467049 11.9231352,16.4243514 11.9119513,13.3323767 C11.9051845,11.4616153 11.8979345,9.67998868 11.8906845,8.0468852 C11.888147,7.47531243 11.8865762,7.13385232 11.8836764,6.51778457 C11.8815017,6.06504553 11.8815017,6.06504553 11.8810175,5.96836157 C11.8760758,4.92018459 12.6642691,3.98433504 13.6926613,3.81154665 L35.2832164,0.183945007 C36.4229385,-0.00754879703 37.4295396,0.826485484 37.4395776,1.98908902 L37.7145699,34.0965965 C37.7178534,34.1400663 37.7222048,34.2132491 37.7263715,34.3131559 C37.7737732,35.449721 37.6921211,36.773886 37.371604,38.0617294 C37.2029266,38.7394782 36.9748332,39.3621148 36.6772961,39.9175158 C35.6089248,41.9118035 33.3004084,43.3002441 31.1608943,43.7404781 C27.9552247,44.4000882 25.0067935,43.0814188 23.9086479,40.4339015 C22.7572852,37.6580831 24.248385,33.7877836 27.9450788,32.3483375 C28.2946477,32.2122198 28.641676,32.1057002 29.0042808,32.0207584 C29.4839038,31.9084047 29.9222083,31.8431952 30.6712652,31.758697 C33.0988663,31.4848487 34.1584841,31.2933844 36.4131449,30.5732238 L37.0216762,32.4783983 C36.6262613,32.6046976 36.2641217,32.7159668 35.9236861,32.8150109 C35.9152407,32.603882 35.9093427,32.478998 35.9093427,32.478998 C35.9093427,32.478998 35.8364285,32.4907902 35.7030526,32.5133018 L35.531868,12.6867641 L13.9225782,16.4895492 Z" id="Combined-Shape"></path>
        </g>
    </g>
</svg>

<svg width="38" height="49" xmlns="http://www.w3.org/2000/svg"><path d="M13.923 16.49c.006 1.988.01 3.928.014 5.79.016 8.625 0 14.362-.062 15.94-.183 4.73-.565 6.274-2.413 8.016-1.798 1.696-4.406 2.165-6.711 1.68-2.133-.449-3.77-1.607-4.267-3.48-.872-3.282.968-6.21 4.175-7.209.677-.21 1.337-.355 2.186-.495l.69-.109c2.3-.352 3.324-.612 4.895-1.396l.893 1.79c-.498.248-.949.45-1.394.622l-.007-.139-.027.003c.045-2.165.057-7.566.042-15.22a5192.421 5192.421 0 0 0-.053-15.765l-.003-.55c-.005-1.048.783-1.984 1.812-2.156L35.283.184a1.826 1.826 0 0 1 2.157 1.805l.275 32.108c.003.043.007.116.011.216.048 1.137-.034 2.46-.354 3.749a8.026 8.026 0 0 1-.695 1.856C35.61 41.912 33.3 43.3 31.161 43.74c-3.206.66-6.154-.659-7.252-3.306-1.152-2.776.34-6.646 4.036-8.086.35-.136.697-.242 1.06-.327.479-.113.917-.178 1.666-.262 2.428-.274 3.487-.466 5.742-1.186l.609 1.905c-.396.127-.758.238-1.098.337a51.773 51.773 0 0 0-.015-.336l-.206.034-.171-19.826-21.61 3.803z" fill-rule="evenodd"/></svg>
